documentation/public/assets/images/link.svg

<svg width="33" height="24" viewBox="0 0 33 24" fill="none" xmlns="http://www.w3.org/2000/svg">
<path d="M1.14773 18V6.36364H3.25568V16.233H8.38068V18H1.14773ZM10.1193 18V9.27273H12.1761V18H10.1193ZM11.1534 8.03409C10.8277 8.03409 10.5473 7.92614 10.3125 7.71023C10.0777 7.49053 9.96023 7.22727 9.96023 6.92045C9.96023 6.60985 10.0777 6.34659 10.3125 6.13068C10.5473 5.91098 10.8277 5.80114 11.1534 5.80114C11.483 5.80114 11.7633 5.91098 11.9943 6.13068C12.2292 6.34659 12.3466 6.60985 12.3466 6.92045C12.3466 7.22727 12.2292 7.49053 11.9943 7.71023C11.7633 7.92614 11.483 8.03409 11.1534 8.03409ZM16.348 12.8864V18H14.2912V9.27273H16.2571V10.7557H16.3594C16.5601 10.267 16.8802 9.87879 17.3196 9.59091C17.7628 9.30303 18.3101 9.15909 18.9616 9.15909C19.5639 9.15909 20.0885 9.28788 20.5355 9.54545C20.9863 9.80303 21.3348 10.1761 21.581 10.6648C21.831 11.1534 21.9541 11.7462 21.9503 12.4432V18H19.8935V12.7614C19.8935 12.178 19.742 11.7216 19.4389 11.392C19.1397 11.0625 18.7249 10.8977 18.1946 10.8977C17.8348 10.8977 17.5147 10.9773 17.2344 11.1364C16.9579 11.2917 16.7401 11.517 16.581 11.8125C16.4257 12.108 16.348 12.4659 16.348 12.8864ZM25.9162 15.2614L25.9105 12.7784H26.2401L29.3764 9.27273H31.7798L27.9219 13.5682H27.4957L25.9162 15.2614ZM24.0412 18V6.36364H26.098V18H24.0412ZM29.5185 18L26.6776 14.0284L28.0639 12.5795L31.9787 18H29.5185Z" fill="#0F67F5"/>
</svg>

<svg width="33" height="24" fill="none" xmlns="http://www.w3.org/2000/svg"><path d="M1.15 18V6.36h2.1v9.87h5.13V18H1.15Zm8.97 0V9.27h2.06V18h-2.06Zm1.03-9.97c-.32 0-.6-.1-.84-.32a1.04 1.04 0 0 1-.35-.79c0-.31.12-.57.35-.79.24-.22.52-.33.84-.33.33 0 .61.11.84.33a1.05 1.05 0 0 1 0 1.58c-.23.22-.5.32-.84.32Zm5.2 4.86V18h-2.06V9.27h1.97v1.49h.1c.2-.5.52-.88.96-1.17.44-.29.99-.43 1.64-.43.6 0 1.13.13 1.58.39.45.25.8.63 1.04 1.11.25.5.37 1.09.37 1.78V18h-2.06v-5.24c0-.58-.15-1.04-.45-1.37a1.6 1.6 0 0 0-1.25-.5c-.36 0-.68.09-.96.25-.27.15-.49.38-.65.67-.15.3-.23.66-.23 1.08Zm9.57 2.37-.01-2.48h.33l3.14-3.5h2.4l-3.86 4.29h-.42l-1.58 1.7ZM24.04 18V6.36h2.06V18h-2.06Zm5.48 0-2.84-3.97 1.38-1.45L31.98 18h-2.46Z" fill="#0F67F5"/></svg>
